X: 1111
T: Apples in Winter
R:double jig
N:"collected by Ennis"
B:O'Neill's 1111
Z:Transcribed by henrik.norbeck@mailbox.swipnet.se
M:6/8
L:1/8
K:Em
(d/c/)|BEE dEE|BAG FEF|DED FDF|ABc ded|
BEE BAB|^def gfe|fdB AdF|FEE E2:|
B|efe edB|(e/f/g)e fdB|ded dAF|DFA ^def|
e=dB ^def|gba gfe|fdB AdF|FEE E2:|


